icons/light/py.svg

<svg width="16" height="16" viewBox="0 0 16 16" fill="none" xmlns="http://www.w3.org/2000/svg">
<path d="M12.76 5.00001C13.2657 5.00001 13.7506 5.20089 14.1082 5.55845C14.4658 5.91602 14.6667 6.40099 14.6667 6.90667V9.42667C14.6667 9.67706 14.6173 9.92499 14.5215 10.1563C14.4257 10.3876 14.2853 10.5978 14.1082 10.7749C13.9312 10.9519 13.721 11.0924 13.4896 11.1882C13.2583 11.284 13.0104 11.3333 12.76 11.3333H8C8 11.5933 8.21333 11.9733 8.47333 11.9733H11.3333V13.0933C11.3333 13.599 11.1325 14.084 10.7749 14.4416C10.4173 14.7991 9.93235 15 9.42667 15H6.57333C6.06765 15 5.58268 14.7991 5.22512 14.4416C4.86755 14.084 4.66667 13.599 4.66667 13.0933V10.5933C4.66666 10.3433 4.71603 10.0957 4.81193 9.8647C4.90783 9.63374 5.04838 9.42399 5.22552 9.24747C5.40266 9.07095 5.6129 8.93114 5.84419 8.83605C6.07547 8.74096 6.32326 8.69246 6.57333 8.69334H10.0733C10.3234 8.69334 10.571 8.64398 10.802 8.54807C11.0329 8.45217 11.2427 8.31162 11.4192 8.13449C11.5957 7.95735 11.7355 7.74711 11.8306 7.51582C11.9257 7.28453 11.9742 7.03674 11.9733 6.78667V5.00001H12.76ZM9.90667 12.86C9.64 12.86 9.42667 13.06 9.42667 13.4533C9.42667 13.8467 9.64 13.9267 9.90667 13.9267C9.96882 13.9267 10.0304 13.9144 10.0878 13.8906C10.1452 13.8669 10.1974 13.832 10.2414 13.788C10.2853 13.7441 10.3202 13.6919 10.344 13.6345C10.3678 13.577 10.38 13.5155 10.38 13.4533C10.38 13.06 10.1667 12.86 9.90667 12.86ZM3.24 11.6667C2.73432 11.6667 2.24935 11.4658 1.89178 11.1082C1.53421 10.7507 1.33333 10.2657 1.33333 9.76001V7.24001C1.33333 6.98962 1.38265 6.74168 1.47847 6.51036C1.57429 6.27903 1.71473 6.06884 1.89178 5.89179C2.24935 5.53422 2.73432 5.33334 3.24 5.33334H8C8 5.07334 7.78667 4.69334 7.52667 4.69334H4.66667V3.57334C4.66667 3.06766 4.86755 2.58269 5.22512 2.22512C5.58268 1.86755 6.06765 1.66667 6.57333 1.66667H9.42667C9.67705 1.66667 9.92499 1.71599 10.1563 1.81181C10.3876 1.90763 10.5978 2.04807 10.7749 2.22512C10.9519 2.40217 11.0924 2.61236 11.1882 2.84369C11.284 3.07502 11.3333 3.32295 11.3333 3.57334V6.07334C11.3333 6.32341 11.284 6.57103 11.1881 6.80198C11.0922 7.03293 10.9516 7.24269 10.7745 7.4192C10.5973 7.59572 10.3871 7.73554 10.1558 7.83063C9.92452 7.92572 9.67674 7.97422 9.42667 7.97334H5.92667C5.67659 7.97334 5.42898 8.0227 5.19802 8.1186C4.96707 8.2145 4.75732 8.35505 4.5808 8.53219C4.40428 8.70933 4.26447 8.91957 4.16938 9.15086C4.07429 9.38215 4.02579 9.62993 4.02667 9.88001V11.6667H3.24ZM6.09333 3.80667C6.36 3.80667 6.57333 3.60667 6.57333 3.21334C6.57333 2.82001 6.36 2.74001 6.09333 2.74001C5.83333 2.74001 5.62 2.82001 5.62 3.21334C5.62 3.60667 5.83333 3.80667 6.09333 3.80667Z" fill="#424242"/>
</svg>

<svg xmlns="http://www.w3.org/2000/svg" width="16" height="16" fill="none" xmlns:v="https://vecta.io/nano"><path d="M12.76 5c.506 0 .991.201 1.348.558s.559.843.559 1.348v2.52c0 .25-.049.498-.145.73s-.236.441-.413.619-.387.317-.619.413-.479.145-.73.145H8c0 .26.213.64.473.64h2.86v1.12c0 .506-.201.991-.558 1.348S9.932 15 9.427 15H6.573c-.506 0-.991-.201-1.348-.558s-.558-.843-.558-1.348v-2.5a1.9 1.9 0 0 1 .559-1.346 1.9 1.9 0 0 1 1.348-.554h3.5a1.9 1.9 0 0 0 1.346-.559 1.9 1.9 0 0 0 .554-1.348V5h.787zm-2.853 7.86c-.267 0-.48.2-.48.593s.213.473.48.473c.062 0 .124-.012.181-.036a.47.47 0 0 0 .154-.103c.044-.044.079-.096.103-.154s.036-.119.036-.181c0-.393-.213-.593-.473-.593zM3.24 11.667c-.506 0-.991-.201-1.348-.559s-.558-.842-.558-1.348V7.24c0-.25.049-.498.145-.73s.236-.442.413-.619c.358-.358.843-.558 1.348-.558H8c0-.26-.213-.64-.473-.64h-2.86v-1.12c0-.506.201-.991.558-1.348s.843-.558 1.348-.558h2.853c.25 0 .498.049.73.145a1.91 1.91 0 0 1 .619.413c.177.177.317.387.413.619s.145.479.145.73v2.5a1.9 1.9 0 0 1-.559 1.346 1.9 1.9 0 0 1-1.348.554h-3.5a1.9 1.9 0 0 0-1.346.559 1.9 1.9 0 0 0-.554 1.348v1.787H3.24zm2.853-7.86c.267 0 .48-.2.48-.593s-.213-.473-.48-.473c-.26 0-.473.08-.473.473s.213.593.473.593z" fill="#424242"/></svg>
